src/lib/packages/icons/src/assets/filled/more-horizontal-circle.svg

<svg width="24" height="24" viewBox="0 0 24 24" fill="none" xmlns="http://www.w3.org/2000/svg">
<path d="M12 2C6.477 2 2 6.477 2 12C2 17.523 6.477 22 12 22C17.523 22 22 17.523 22 12C22 6.477 17.523 2 12 2ZM8.02002 13.25C7.33002 13.25 6.76501 12.69 6.76501 12C6.76501 11.31 7.32001 10.75 8.01001 10.75H8.02002C8.71002 10.75 9.27002 11.31 9.27002 12C9.27002 12.69 8.71002 13.25 8.02002 13.25ZM12.02 13.25C11.33 13.25 10.765 12.69 10.765 12C10.765 11.31 11.32 10.75 12.01 10.75H12.02C12.71 10.75 13.27 11.31 13.27 12C13.27 12.69 12.71 13.25 12.02 13.25ZM16.02 13.25C15.33 13.25 14.765 12.69 14.765 12C14.765 11.31 15.32 10.75 16.01 10.75H16.02C16.71 10.75 17.27 11.31 17.27 12C17.27 12.69 16.71 13.25 16.02 13.25Z" fill="currentColor"/>
</svg>

<svg xmlns="http://www.w3.org/2000/svg" width="24" height="24" fill="none"><path fill="currentColor" d="M12 2C6.477 2 2 6.477 2 12s4.477 10 10 10 10-4.477 10-10S17.523 2 12 2ZM8.02 13.25c-.69 0-1.255-.56-1.255-1.25s.555-1.25 1.245-1.25h.01a1.25 1.25 0 0 1 0 2.5Zm4 0c-.69 0-1.255-.56-1.255-1.25s.555-1.25 1.245-1.25h.01a1.25 1.25 0 0 1 0 2.5Zm4 0c-.69 0-1.255-.56-1.255-1.25s.555-1.25 1.245-1.25h.01a1.25 1.25 0 0 1 0 2.5Z"/></svg>
